exported-svg/gitlab.svg

<svg height="24" viewBox="0 0 24 24" width="24" xmlns="http://www.w3.org/2000/svg"><path d="m23.4271513 14.4127979-10.6403462 7.732984c-.1752681.1273779-.4126327.1273779-.5879007 0l-10.65228072-7.7416674c-.46721935-.3436076-.66036124-.9487856-.47959954-1.4963741l1.22029959-3.78092512 2.44919201-7.53585499c.05184026-.13404189.1343627-.25407453.23912968-.34881953.3552025-.32444699.8992161-.32444699 1.26470149.00966218.11255283.10878965.19548614.2444987.23791745.38463932l2.3275688 7.1448731h7.37377984l2.3369027-7.19035507c.0518403-.13404189.1343627-.25407453.2391297-.34881953.3552025-.32444699.8992161-.32444699 1.2647015.00966218.1125528.10878965.1954861.2444987.2380388.38501234l2.438177 7.50449766 1.2763496 3.78019986c.1640969.5634802-.0576461 1.1675276-.545761 1.4912851zm-10.9342966 6.7104194 10.3560497-7.5263685.0222261-.0152547c.1260713-.0816176.183659-.2362818.1480163-.3602763l-1.2718231-3.76550236-2.3676698-7.28767369-2.3612682 7.26767369c-.0669345.20601562-.2589146.34549992-.475531.34549992h-8.09999998c-.21647184 0-.40835831-.1393013-.47540964-.3451269l-2.36769103-7.26835516-2.36106876 7.26705701-1.2210281 3.78314969c-.04612577.1397396.00288038.2932922.11914787.3788088z"/></svg>

<?xml version="1.0" encoding="UTF-8"?>
<svg width="24px" height="24px" viewBox="0 0 24 24" version="1.1" xmlns="http://www.w3.org/2000/svg" xmlns:xlink="http://www.w3.org/1999/xlink">
    <!-- Generator: Sketch 55.2 (78181) - https://sketchapp.com -->
    <title>gitlab</title>
    <desc>Created with Sketch.</desc>
    <g id="gitlab" stroke="none" stroke-width="1" fill="none" fill-rule="evenodd">
        <path d="M23.4271513,14.4127979 L12.7868051,22.1457819 C12.611537,22.2731598 12.3741724,22.2731598 12.1989044,22.1457819 L1.54662368,14.4041145 C1.07940433,14.0605069 0.886262436,13.4553289 1.06702414,12.9077404 L2.28732373,9.12681528 L4.73651574,1.59096029 C4.788356,1.4569184 4.87087844,1.33688576 4.97564542,1.24214076 C5.33084792,0.917693771 5.87486152,0.917693771 6.24034691,1.25180294 C6.35289974,1.36059259 6.43583305,1.49630164 6.47826436,1.63644226 L8.80583316,8.78131536 L16.179613,8.78131536 L18.5165157,1.59096029 C18.568356,1.4569184 18.6508784,1.33688576 18.7556454,1.24214076 C19.1108479,0.917693771 19.6548615,0.917693771 20.0203469,1.25180294 C20.1328997,1.36059259 20.215833,1.49630164 20.2583857,1.63681528 L22.6965627,9.14131294 L23.9729123,12.9215128 C24.1370092,13.484993 23.9152662,14.0890404 23.4271513,14.4127979 Z M12.4928547,21.1232173 L22.8489044,13.5968488 L22.8711305,13.5815941 C22.9972018,13.4999765 23.0547895,13.3453123 23.0191468,13.2213178 L21.7473237,9.45581544 L19.3796539,2.16814175 L17.0183857,9.43581544 C16.9514512,9.64183106 16.7594711,9.78131536 16.5428547,9.78131536 L8.44285472,9.78131536 C8.22638288,9.78131536 8.03449641,9.64201406 7.96744508,9.43618846 L5.59975405,2.1678333 L3.23868529,9.43489031 L2.01765719,13.21804 C1.97153142,13.3577796 2.02053757,13.5113322 2.13680506,13.5968488 L12.4928547,21.1232173 Z" id="Shape" fill="#000000" fill-rule="nonzero"></path>
    </g>
</svg>
